phone-check.svg

<svg fill="currentColor" viewBox="0 0 24 24"><path d="M6.62 10.79a15.1 15.1 0 0 0 6.59 6.59l2.2-2.2a1 1 0 0 1 1-.25 11.4 11.4 0 0 0 3.59.57 1 1 0 0 1 1 1V20a1 1 0 0 1-1 1A17 17 0 0 1 3 4a1 1 0 0 1 1-1h3.5a1 1 0 0 1 1 1 11.4 11.4 0 0 0 .57 3.57 1 1 0 0 1-.25 1m12.89-3.86-1.42-1.42L15 8.59l-2.29-2.3-1.42 1.42 3.71 3.7Z"/></svg>

<svg  viewBox="0 0 24 24" fill="currentColor"><path  d="M6.62 10.79A15.1 15.1 0 0 0 13.21 17.38L15.41 15.18A1 1 0 0 1 16.41 14.93A11.36 11.36 0 0 0 20 15.5A1 1 0 0 1 21 16.5V20A1 1 0 0 1 20 21A17 17 0 0 1 3 4A1 1 0 0 1 4 3H7.5A1 1 0 0 1 8.5 4A11.36 11.36 0 0 0 9.07 7.57A1 1 0 0 1 8.82 8.57M21.71 4.71L20.29 3.29L15 8.59L12.71 6.29L11.29 7.71L15 11.41Z"/></svg>
